assets/icons/svg/briefcase.svg

<svg width="16" height="16" viewBox="0 0 16 16" xmlns="http://www.w3.org/2000/svg">
<path d="M3.07143 13.2857H12.9286C13.5191 13.2857 14 12.8049 14 12.2143V5.78572C14 5.19514 13.5191 4.71429 12.9286 4.71429H10.7386L10.5131 3.81172C10.4554 3.57972 10.3217 3.37374 10.1332 3.22662C9.94477 3.0795 9.7125 2.99972 9.47343 3H6.52614C6.28713 2.99974 6.05491 3.07954 5.86654 3.22666C5.67817 3.37379 5.5445 3.57976 5.48686 3.81172L5.26143 4.71429H3.07143C2.78737 4.71463 2.51505 4.82762 2.31419 5.02848C2.11333 5.22933 2.00034 5.50166 2 5.78572V12.2143C2 12.8049 2.48086 13.2857 3.07143 13.2857ZM12.9286 12.8571H3.07143C2.717 12.8571 2.42857 12.5687 2.42857 12.2143V7.78714L6.92857 9.12043V10.5C6.92857 10.5568 6.95115 10.6113 6.99133 10.6515C7.03152 10.6917 7.08603 10.7143 7.14286 10.7143H8.85714C8.91398 10.7143 8.96848 10.6917 9.00867 10.6515C9.04885 10.6113 9.07143 10.5568 9.07143 10.5V9.12043L13.5714 7.78714V12.2143C13.5714 12.5687 13.283 12.8571 12.9286 12.8571ZM8 9.85714C7.94317 9.85714 7.88866 9.87972 7.84848 9.91991C7.80829 9.96009 7.78571 10.0146 7.78571 10.0714V10.2857H7.35714V9.42857H8.64286V10.2857H8.21429V10.0714C8.21429 10.0146 8.19171 9.96009 8.15152 9.91991C8.11134 9.87972 8.05683 9.85714 8 9.85714ZM8.64286 8.96014V9H7.35714V8.57143H8.64286V8.96014ZM5.90257 3.91543C5.93724 3.77623 6.01752 3.65265 6.13062 3.56441C6.24372 3.47616 6.38312 3.42834 6.52657 3.42857H9.47386C9.61727 3.42849 9.75659 3.47637 9.86966 3.56459C9.98273 3.65281 10.0631 3.7763 10.0979 3.91543L10.2971 4.71429H5.70286L5.90257 3.91543ZM2.42857 5.78572C2.42857 5.43129 2.717 5.14286 3.07143 5.14286H12.9286C13.283 5.14286 13.5714 5.43129 13.5714 5.78572V7.33972L9.07143 8.673V8.35714C9.07143 8.30031 9.04885 8.24581 9.00867 8.20562C8.96848 8.16543 8.91398 8.14286 8.85714 8.14286H7.14286C7.08603 8.14286 7.03152 8.16543 6.99133 8.20562C6.95115 8.24581 6.92857 8.30031 6.92857 8.35714V8.67343L2.42857 7.33972V5.78572Z"/>
</svg>

<svg xmlns="http://www.w3.org/2000/svg" width="16" height="16" viewBox="0 0 16 16">
  <path d="M3.071 13.286h9.858c.59 0 1.071-.481 1.071-1.072V5.786c0-.59-.48-1.072-1.071-1.072h-2.19l-.226-.902A1.07 1.07 0 0 0 9.473 3H6.526a1.07 1.07 0 0 0-1.04.812l-.225.902h-2.19A1.073 1.073 0 0 0 2 5.786v6.428c0 .59.48 1.072 1.071 1.072Zm9.858-.429H3.07a.644.644 0 0 1-.642-.643V7.787l4.5 1.333v1.38a.214.214 0 0 0 .214.214h1.714a.214.214 0 0 0 .214-.214V9.12l4.5-1.333v4.427a.644.644 0 0 1-.642.643ZM8 9.857a.214.214 0 0 0-.214.214v.215h-.429v-.857h1.286v.857h-.429v-.215A.214.214 0 0 0 8 9.857Zm.643-.897V9H7.357v-.429h1.286v.39Zm-2.74-5.045a.642.642 0 0 1 .624-.486h2.947a.643.643 0 0 1 .624.486l.2.8H5.702l.2-.8Zm-3.474 1.87c0-.354.288-.642.642-.642h9.858c.354 0 .642.288.642.643V7.34l-4.5 1.333v-.316a.214.214 0 0 0-.214-.214H7.143a.214.214 0 0 0-.214.214v.316l-4.5-1.333V5.786Z"/>
</svg>
